assets/images/svg/circle-pause-solid.svg

<svg xmlns="http://www.w3.org/2000/svg" viewBox="0 0 512 512"><!--! Font Awesome Pro 6.4.0 by @fontawesome - https://fontawesome.com License - https://fontawesome.com/license (Commercial License) Copyright 2023 Fonticons, Inc. --><path d="M256 512A256 256 0 1 0 256 0a256 256 0 1 0 0 512zM224 192V320c0 17.7-14.3 32-32 32s-32-14.3-32-32V192c0-17.7 14.3-32 32-32s32 14.3 32 32zm128 0V320c0 17.7-14.3 32-32 32s-32-14.3-32-32V192c0-17.7 14.3-32 32-32s32 14.3 32 32z"/></svg>

<?xml version="1.0" encoding="UTF-8" standalone="no"?>
<!DOCTYPE svg PUBLIC "-//W3C//DTD SVG 1.1//EN" "http://www.w3.org/Graphics/SVG/1.1/DTD/svg11.dtd">
<svg width="100%" height="100%" viewBox="0 0 512 512" version="1.1" xmlns="http://www.w3.org/2000/svg" xmlns:xlink="http://www.w3.org/1999/xlink" xml:space="preserve" xmlns:serif="http://www.serif.com/" style="fill-rule:evenodd;clip-rule:evenodd;stroke-linejoin:round;stroke-miterlimit:2;">
    <path d="M256,512C396.437,512 512,396.437 512,256C512,115.563 396.437,0 256,0C115.563,0 -0,115.563 0,256C0,396.437 115.563,512 256,512ZM224,192L224,320C224,337.7 209.7,352 192,352C174.3,352 160,337.7 160,320L160,192C160,174.3 174.3,160 192,160C209.7,160 224,174.3 224,192ZM352,192L352,320C352,337.7 337.7,352 320,352C302.3,352 288,337.7 288,320L288,192C288,174.3 302.3,160 320,160C337.7,160 352,174.3 352,192Z" style="fill:rgb(238,179,18);fill-rule:nonzero;"/>
</svg>
